X: 1
T: Drummond Castle
R: Jig
C: Trad
M: 6/8
L: 1/8
K: Amin
r: 32
"Am" ABA a3 | age g3| "C" c2 c edc | "G" Bdg dBG |
"Am" ABA a3| age g2 g | "C" ege deg |1 "Em" edB A2G :|2 "Em" edB A2B ]
|: "Am" c3 cec| "Dm" d3 ded| "Am"c3 edc| "G" Bdg dBG|
"Am" c3 edc|"Dm"deg "C"a2 a|age  deg|1 "Em" edB A2 B:|2 "Em" edB A3||
